files/intersection.svg

<svg xmlns="http://www.w3.org/2000/svg" width="512" height="512" viewBox="0 0 454.815 454.815"><path d="M320.021 92.61c-35.843 0-68.447 14.091-92.613 36.98-24.169-22.896-56.767-36.98-92.609-36.98C60.47 92.61 0 153.08 0 227.411c0 74.322 60.47 134.795 134.798 134.795 35.843 0 68.44-14.091 92.609-36.983 24.166 22.898 56.771 36.983 92.613 36.983 74.322 0 134.795-60.473 134.795-134.795 0-74.331-60.472-134.801-134.794-134.801zM134.798 350.1c-67.658 0-122.693-55.047-122.693-122.689 0-67.651 55.041-122.695 122.693-122.695 32.58 0 62.16 12.85 84.143 33.641-20.965 23.768-33.727 54.947-33.727 89.055 0 34.117 12.761 65.29 33.727 89.063-21.983 20.775-51.563 33.625-84.143 33.625zm62.521-122.689c0-30.683 11.405-58.708 30.088-80.241 18.682 21.533 30.089 49.559 30.089 80.241 0 30.677-11.407 58.706-30.089 80.232-18.683-21.526-30.088-49.556-30.088-80.232zM320.021 350.1c-32.58 0-62.164-12.85-84.146-33.638 20.965-23.773 33.727-54.946 33.727-89.063 0-34.111-12.762-65.287-33.727-89.055 21.987-20.791 51.565-33.641 84.146-33.641 67.654 0 122.689 55.042 122.689 122.696 0 67.643-55.035 122.701-122.689 122.701zm-84.583-179.435h-17.901v-6.053h17.901v6.053zm-16.261 113.489h17.904v6.053h-17.904v-6.053zm28.626-92.051h-39.345v-6.053h39.345v6.053zm3.783 19.417h-50.053v-6.052h50.053v6.052zm1.761 13.872v6.05h-51.881v-6.05h51.881zm-49.296 19.775h46.695v6.053h-46.695v-6.053zm4.407 19.316h35.562v6.053h-35.562v-6.053z" fill="#831383"/></svg>

<?xml version="1.0" encoding="iso-8859-1"?>
<!-- Generator: Adobe Illustrator 16.0.0, SVG Export Plug-In . SVG Version: 6.00 Build 0)  -->
<!DOCTYPE svg PUBLIC "-//W3C//DTD SVG 1.1//EN" "http://www.w3.org/Graphics/SVG/1.1/DTD/svg11.dtd">
<svg xmlns="http://www.w3.org/2000/svg" xmlns:xlink="http://www.w3.org/1999/xlink" version="1.1" id="Capa_1" x="0px" y="0px" width="512px" height="512px" viewBox="0 0 454.815 454.815" style="enable-background:new 0 0 454.815 454.815;" xml:space="preserve">
<g>
	<path d="M320.021,92.61c-35.843,0-68.447,14.091-92.613,36.98c-24.169-22.896-56.767-36.98-92.609-36.98   C60.47,92.61,0,153.08,0,227.411c0,74.322,60.47,134.795,134.798,134.795c35.843,0,68.44-14.091,92.609-36.983   c24.166,22.898,56.771,36.983,92.613,36.983c74.322,0,134.795-60.473,134.795-134.795C454.815,153.08,394.343,92.61,320.021,92.61z    M134.798,350.1c-67.658,0-122.693-55.047-122.693-122.689c0-67.651,55.041-122.695,122.693-122.695   c32.58,0,62.16,12.85,84.143,33.641c-20.965,23.768-33.727,54.947-33.727,89.055c0,34.117,12.761,65.29,33.727,89.063   C196.958,337.25,167.378,350.1,134.798,350.1z M197.319,227.411c0-30.683,11.405-58.708,30.088-80.241   c18.682,21.533,30.089,49.559,30.089,80.241c0,30.677-11.407,58.706-30.089,80.232   C208.724,286.117,197.319,258.087,197.319,227.411z M320.021,350.1c-32.58,0-62.164-12.85-84.146-33.638   c20.965-23.773,33.727-54.946,33.727-89.063c0-34.111-12.762-65.287-33.727-89.055c21.987-20.791,51.565-33.641,84.146-33.641   c67.654,0,122.689,55.042,122.689,122.696C442.71,295.042,387.675,350.1,320.021,350.1z M235.438,170.665h-17.901v-6.053h17.901   V170.665z M219.177,284.154h17.904v6.053h-17.904V284.154z M247.803,192.103h-39.345v-6.053h39.345V192.103z M251.586,211.52   h-50.053v-6.052h50.053V211.52z M253.347,225.392v6.05h-51.881v-6.05H253.347z M204.051,245.167h46.695v6.053h-46.695V245.167z    M208.458,264.483h35.562v6.053h-35.562V264.483z" fill="#831383"/>
</g>
<g>
</g>
<g>
</g>
<g>
</g>
<g>
</g>
<g>
</g>
<g>
</g>
<g>
</g>
<g>
</g>
<g>
</g>
<g>
</g>
<g>
</g>
<g>
</g>
<g>
</g>
<g>
</g>
<g>
</g>
</svg>
